X:111
T:Lambkin
Z:Jack Campin - http://www.campin.me.uk
S:Blaikie MS (NLS MS.1578) p33, Blaikie #105
M:3/4
L:1/8
V:1 midi program 1 74
V:2 midi program 1 46 bass middle = d transpose -24
Q:1/4=80
K:E Minor
[V:1] EF |G2 G2 FE|F2 D2 B,2|B2 e2 B2|A4 
[V:2] z2 |E2 e2 e2|B2 B2 B2 |G2 g2 g2|f2 d2
%
[V:1] G>A|B3  c BA|d2 B2 EF |G2 BA GF|E4|]
[V:2] z2 |G2 g2 g2|G2 g2 z2 |e2 b2 B2|e4|]
W:Transcription (c) Jack Campin 2009, no mirroring or republication without permission

